Hatter-kde/actions/24/gnumeric-component-insert-shaped.svg

<svg xmlns="http://www.w3.org/2000/svg" viewBox="0 0 24 24">
  <defs id="defs3051">
    <style type="text/css" id="current-color-scheme">
      .ColorScheme-Text {
        color:#363636;
      }
      </style>
  </defs>
 <path style="fill:currentColor" 
     d="M 7 4 C 5.3431458 4 4 5.3431 4 7 C 4 8.6569 5.3431458 10 7 10 C 8.3013207 10 9.3969895 9.1584 9.8125 8 L 12.21875 8 C 7.8858053 10.4608 5 14.9142 5 20 L 7 20 C 7 13.6297 12.301188 8.4148 19 8 L 20 8 L 20 6 L 19 6 L 9.8125 6 C 9.3969895 4.8416 8.3013207 4 7 4 z M 7 6 C 7.552285 6 8 6.4477 8 7 C 8 7.5523 7.552285 8 7 8 C 6.4477153 8 6 7.5523 6 7 C 6 6.4477 6.4477153 6 7 6 z "
     class="ColorScheme-Text"
     />
 <path 
     style="fill:#b3b3b3" 
     d="M 18.5 8 C 18.197314 8.014 18.1016 8.02725 18.03125 8.03125 C 11.897043 8.27685 7 13.3055 7 19.5 C 7 19.6672 7.024183 19.8345 7.03125 20 L 18.03125 20 L 19 20 L 20 20 L 20 8 L 18.5 8 z "
     />
</svg>

<?xml version="1.0" encoding="UTF-8"?>
<svg viewBox="0 0 24 24" xmlns="http://www.w3.org/2000/svg">
 <defs id="defs3051">
  <style id="current-color-scheme" type="text/css">.ColorScheme-Text {
        color:#363636;
      }</style>
 </defs>
 <path class="ColorScheme-Text" d="m7 4c-1.6569 0-3 1.3431-3 3s1.3431 3 3 3c1.3013 0 2.397-0.8416 2.8125-2h2.4062c-4.3329 2.4608-7.2188 6.9142-7.2188 12h2c0-6.3703 5.3012-11.585 12-12h1v-2h-1-9.1875c-0.41551-1.1584-1.5112-2-2.8125-2zm0 2c0.55228 0 1 0.4477 1 1s-0.44772 1-1 1c-0.55228 0-1-0.4477-1-1s0.44772-1 1-1z" fill="currentColor"/>
 <path d="m18.5 8c-0.30269 0.014-0.3984 0.02725-0.46875 0.03125-6.1342 0.2456-11.031 5.2742-11.031 11.469 0 0.1672 0.024183 0.3345 0.03125 0.5h11 0.96875 1v-12h-1.5z" fill="#b3b3b3"/>
</svg>
